X:126
T:Golden Keyboard
Z: id:dc-reel-116
M:C
L:1/8
K:E Dorian
D|EDEF GFGA|BBgB fBeB|BEEF GBAG|FDAD BDAF|!
EDEF GFGA|BBgB fBec|dcde dBAF|DFAF FEE:|!
A|Bee2 Bee2|Beef edBc|dAA2 fAA2|dcde dBAF|!
EDEF GFGA|BBgB fBec|dcde dBAF|DFAF FEE:|!